X:172
T:Smile again my Bonnie Lassie. CJF.172
R:Air
S:C.J.Fox MS, 1829/33, Beverley,E.Yorks.
N:The first beamed grace notes interrupt a beamed quartet.
N:The markings “a” and “e” appear in the MS. – PJH.
B:Kidson Coll.Mitchell Lib.M1805
O:England
A:East Yorkshire
Z:vmp.P J Headford 2000 & 2008
M:2/4
L:1/16
Q:1/4=60
K:D
d3ef3e|” a”dG3BA3|Be3g3f|{f2}e4z4|!
d3″ e”d{de}f3e|d3AcB3|d2b2a3f|{e}d4z4|!
e3ca3g|e3dcB3|B3Be3d|{d}c4z4|!
e3ca3f|e3dd3c|\
B4{g}f2He2{G2}|{B2}HA4z4{(ABcdef)} {(gfagec)}|!
d3ef3e|dA3BA3|B3e{a}g3f|{f}e4z2A2|!
B3cd3B|AF3Ad3|eb3Ha3c|{e}d4z4|]

